X: 14
T: Acemaşîrân Aranağme (Sofyan)
C: ?
O: Turkey
F: http://compmusic.upf.edu/node/140
N: acemasiran--aranagme--sofyan--1--
N: makam= acemasiran
N: form= aranagme
N: usul= sofyan = 4/4
M: 4/4
L: 1/16
K: C _B   
Q: 1/4=90
%%MIDI tuningsystem comma53
z4 f2f2 f4 f4  | fge2 z2ef d4 dec2  | \
w:   |   | 
z4 e2e2 e4 e4  | ded2 z2cd c4 ABA2  | 
w:   |   | 
a4 g4 f4 b4  | a4 g4 f4 e4  | a8 g8  | f12 z4  | \
w:   |   |   |   | 
z4 f2f2 f4 f4  | fge2 z2ef d4 dec2  | 
w:   |   | 
z4 e2e2 e4 e4  | ded2 z2cd c4 ABA2  | \
w:   |   | 
a4 g4 f4 b4  | a4 g4 f4 e4  | 
w:   |   | 
a8 g8  | f12 z4  | |


